TF1/func.svg

<svg xmlns="http://www.w3.org/2000/svg" viewBox="0 0 1200 800" preserveAspectRatio="none" width="1200" height="800">
 <path d="M0,0H1200V800H0Z" style="fill: white;"></path>
 <g>
  <g transform="translate(120,80)">
   <path d="M0,0H960V640H0Z" style="fill: white; stroke: black; stroke-width: 1;"></path>
   <svg x="0" y="0" overflow="hidden" width="960" height="640" viewBox="0 0 960 640">
    <g>
     <path d="M0,372.16C1.57,372.37,6.5,372.91,9.6,373.47S16.22,374.83,19.2,375.64S25.96,377.64,28.8,378.65S35.72,381.29,38.4,382.47S45.48,385.76,48,387.07S55.23,391,57.6,392.4S64.97,396.94,67.2,398.41S74.69,403.52,76.8,405.04S84.39,410.65,86.4,412.19S94.06,418.22,96,419.78S103.71,426.11,105.6,427.69S113.33,434.2,115.2,435.78S122.92,442.32,124.8,443.9S132.47,450.3,134.4,451.86S141.98,457.93,144,459.47S151.43,465,153.6,466.5S160.82,471.29,163.2,472.69S170.15,476.57,172.8,477.78S179.46,480.6,182.4,481.48S188.8,483.46,192,483.51S198.4,483.61,201.6,483.56S208.36,482.4,211.2,481.38S218.5,478.16,220.8,476.72S228.66,470.95,230.4,469.36S238.71,460.74,240,459.17S248.63,447.54,249.6,446.06S258.45,431.43,259.2,430.07S268.2,412.55,268.8,411.31S277.9,391.16,278.4,390S287.63,367.52,288,366.5S297.39,337.4,297.6,336.61S307.04,294.79,307.2,294.1S316.64,252.93,316.8,252.22S326.22,212.49,326.4,211.75S335.8,174.3,336,173.51S345.35,139.18,345.6,138.33S354.88,107.95,355.2,107S364.36,81.36,364.8,80.26S373.73,60.05,374.4,58.75S382.84,44.53,384,42.99S391.4,34.82,393.6,33.34S400,30.06,403.2,30.01S410.52,31.56,412.8,33.01S421.16,40.62,422.4,42.18S431.27,55.86,432,57.2S441.12,76.43,441.6,77.58S450.84,101.7,451.2,102.71S460.52,130.95,460.8,131.86S470.16,163.41,470.4,164.26S479.78,198.27,480,199.07S489.4,234.69,489.6,235.47S499,271.89,499.2,272.67S508.6,309.13,508.8,309.91S518.19,345.74,518.4,346.54S527.77,381.15,528,381.98S537.35,414.9,537.6,415.76S546.91,446.61,547.2,447.52S556.47,476.03,556.8,477S566.01,503,566.4,504.05S575.53,527.45,576,528.58S585.04,549.39,585.6,550.6S594.36,568.78,595.2,570.19S603.23,581.28,604.8,582.88S612.12,588.36,614.4,589.81S621.39,593.85,624,595.09S630.74,598,633.6,598.98S640.17,601,643.2,601.71S649.67,603.04,652.8,603.51S659.22,604.32,662.4,604.58S668.8,605,672,605.12S678.4,605.27,681.6,605.29S688,605.28,691.2,605.24S697.6,605.14,700.8,605.09S707.2,604.97,710.4,604.93S716.8,604.85,720,604.85S726.4,604.86,729.6,604.91S736,605.04,739.2,605.16S745.61,605.43,748.8,605.63S755.22,606.06,758.4,606.34S764.84,606.94,768,607.3S774.46,608.07,777.6,608.51S784.08,609.46,787.2,609.97S793.71,611.09,796.8,611.67S803.34,612.95,806.4,613.6S812.96,615.03,816,615.73S822.59,617.3,825.6,618.05S832.21,619.73,835.2,620.53S841.83,622.32,844.8,623.14S851.45,625.02,854.4,625.87S861.06,627.81,864,628.67S870.66,630.66,873.6,631.54S880.27,633.54,883.2,634.42S889.86,636.43,892.8,637.31S899.21,639.98,902.4,640.17S908.96,639.15,912,638.44S918.63,636.54,921.6,635.72S928.21,633.89,931.2,633.1S937.79,631.36,940.8,630.6S947.37,628.97,950.4,628.25S958.48,626.42,960,626.08" style="fill: none; stroke: blue; stroke-width: 6;"></path>
    </g>
   </svg>
   <g>
    <g transform="translate(0,640)">
     <path d="M0,0h960M10,-12v12m19,-12v12m19,-12v12m20,-12v12m19,-24v24m20,-12v12m19,-12v12m19,-12v12m20,-12v12m19,-24v24m20,-12v12m19,-12v12m19,-12v12m20,-12v12m19,-24v24m20,-12v12m19,-12v12m19,-12v12m20,-12v12m19,-24v24m20,-12v12m19,-12v12m19,-12v12m20,-12v12m19,-24v24m20,-12v12m19,-12v12m19,-12v12m20,-12v12m19,-24v24m20,-12v12m19,-12v12m19,-12v12m20,-12v12m19,-24v24m19,-12v12m20,-12v12m19,-12v12m20,-12v12m19,-24v24m19,-12v12m20,-12v12m19,-12v12m20,-12v12m19,-24v24m19,-12v12m20,-12v12m19,-12v12m20,-12v12m19,-24v24" style="stroke: black; stroke-width: 1;"></path>
     <g font-family="Arial" font-size="28" space="preserve" fill="black" text-anchor="middle">
      <text dy=".8em" transform="translate(87,6)">
       1
      </text>
      <text dy=".8em" transform="translate(184,6)">
       2
      </text>
      <text dy=".8em" transform="translate(281,6)">
       3
      </text>
      <text dy=".8em" transform="translate(378,6)">
       4
      </text>
      <text dy=".8em" transform="translate(475,6)">
       5
      </text>
      <text dy=".8em" transform="translate(572,6)">
       6
      </text>
      <text dy=".8em" transform="translate(669,6)">
       7
      </text>
      <text dy=".8em" transform="translate(766,6)">
       8
      </text>
      <text dy=".8em" transform="translate(863,6)">
       9
      </text>
      <text dy=".8em" transform="translate(960,6)">
       10
      </text>
     </g>
    </g>
    <g>
     <path d="M0,0v640M18,627h-18m18,-13h-18m18,-14h-18m18,-13h-18m36,-14h-36m18,-13h-18m18,-13h-18m18,-14h-18m18,-13h-18m36,-14h-36m18,-13h-18m18,-14h-18m18,-13h-18m18,-14h-18m36,-13h-36m18,-13h-18m18,-14h-18m18,-13h-18m18,-14h-18m36,-13h-36m18,-14h-18m18,-13h-18m18,-14h-18m18,-13h-18m36,-14h-36m18,-13h-18m18,-13h-18m18,-14h-18m18,-13h-18m36,-14h-36m18,-13h-18m18,-14h-18m18,-13h-18m18,-14h-18m36,-13h-36m18,-13h-18m18,-14h-18m18,-13h-18m18,-14h-18m36,-13h-36m18,-14h-18m18,-13h-18m18,-14h-18m18,-13h-18m36,-14h-36m18,-13h-18m18,-13h-18" style="stroke: black; stroke-width: 1;"></path>
     <g font-family="Arial" font-size="28" space="preserve" fill="black" text-anchor="end">
      <text dy=".4em" transform="translate(-4,573)">
       5
      </text>
      <text dy=".4em" transform="translate(-4,506)">
       10
      </text>
      <text dy=".4em" transform="translate(-4,439)">
       15
      </text>
      <text dy=".4em" transform="translate(-4,372)">
       20
      </text>
      <text dy=".4em" transform="translate(-4,304)">
       25
      </text>
      <text dy=".4em" transform="translate(-4,237)">
       30
      </text>
      <text dy=".4em" transform="translate(-4,170)">
       35
      </text>
      <text dy=".4em" transform="translate(-4,103)">
       40
      </text>
      <text dy=".4em" transform="translate(-4,35)">
       45
      </text>
     </g>
    </g>
   </g>
  </g>
  <g transform="translate(120,4)" font-family="Arial" font-size="40" space="preserve">
   <text fill="black" text-anchor="middle" dy=".8em" transform="translate(480)">
    x*gaus(0)+[3]*form1
   </text>
  </g>
 </g>
</svg>

<svg xmlns="http://www.w3.org/2000/svg" viewBox="0 0 1200 800" preserveAspectRatio="none" width="1200" height="800">
 <path d="M0,0H1200V800H0Z" style="fill: white;"></path>
 <g>
  <g transform="translate(120,80)">
   <path d="M0,0H960V640H0Z" style="fill: white; stroke: black; stroke-width: 1;"></path>
   <svg x="0" y="0" overflow="hidden" width="960" height="640" viewBox="0 0 960 640">
    <g>
     <path d="M0,372.16C1.57,372.37,6.5,372.91,9.6,373.47S16.22,374.83,19.2,375.64S25.96,377.64,28.8,378.65S35.72,381.29,38.4,382.47S45.48,385.76,48,387.07S55.23,391,57.6,392.4S64.97,396.94,67.2,398.41S74.69,403.52,76.8,405.04S84.39,410.65,86.4,412.19S94.06,418.22,96,419.78S103.71,426.11,105.6,427.69S113.33,434.2,115.2,435.78S122.92,442.32,124.8,443.9S132.47,450.3,134.4,451.86S141.98,457.93,144,459.47S151.43,465,153.6,466.5S160.82,471.29,163.2,472.69S170.15,476.57,172.8,477.78S179.46,480.6,182.4,481.48S188.8,483.46,192,483.51S198.4,483.61,201.6,483.56S208.36,482.4,211.2,481.38S218.5,478.16,220.8,476.72S228.66,470.95,230.4,469.36S238.71,460.74,240,459.17S248.63,447.54,249.6,446.06S258.45,431.43,259.2,430.07S268.2,412.55,268.8,411.31S277.9,391.16,278.4,390S287.63,367.52,288,366.5S297.39,337.4,297.6,336.61S307.04,294.79,307.2,294.1S316.64,252.93,316.8,252.22S326.22,212.49,326.4,211.75S335.8,174.3,336,173.51S345.35,139.18,345.6,138.33S354.88,107.95,355.2,107S364.36,81.36,364.8,80.26S373.73,60.05,374.4,58.75S382.84,44.53,384,42.99S391.4,34.82,393.6,33.34S400,30.06,403.2,30.01S410.52,31.56,412.8,33.01S421.16,40.62,422.4,42.18S431.27,55.86,432,57.2S441.12,76.43,441.6,77.58S450.84,101.7,451.2,102.71S460.52,130.95,460.8,131.86S470.16,163.41,470.4,164.26S479.78,198.27,480,199.07S489.4,234.69,489.6,235.47S499,271.89,499.2,272.67S508.6,309.13,508.8,309.91S518.19,345.74,518.4,346.54S527.77,381.15,528,381.98S537.35,414.9,537.6,415.76S546.91,446.61,547.2,447.52S556.47,476.03,556.8,477S566.01,503,566.4,504.05S575.53,527.45,576,528.58S585.04,549.39,585.6,550.6S594.36,568.78,595.2,570.19S603.23,581.28,604.8,582.88S612.12,588.36,614.4,589.81S621.39,593.85,624,595.09S630.74,598,633.6,598.98S640.17,601,643.2,601.71S649.67,603.04,652.8,603.51S659.22,604.32,662.4,604.58S668.8,605,672,605.12S678.4,605.27,681.6,605.29S688,605.28,691.2,605.24S697.6,605.14,700.8,605.09S707.2,604.97,710.4,604.93S716.8,604.85,720,604.85S726.4,604.86,729.6,604.91S736,605.04,739.2,605.16S745.61,605.43,748.8,605.63S755.22,606.06,758.4,606.34S764.84,606.94,768,607.3S774.46,608.07,777.6,608.51S784.08,609.46,787.2,609.97S793.71,611.09,796.8,611.67S803.34,612.95,806.4,613.6S812.96,615.03,816,615.73S822.59,617.3,825.6,618.05S832.21,619.73,835.2,620.53S841.83,622.32,844.8,623.14S851.45,625.02,854.4,625.87S861.06,627.81,864,628.67S870.66,630.66,873.6,631.54S880.27,633.54,883.2,634.42S889.86,636.43,892.8,637.31S899.21,639.98,902.4,640.17S908.96,639.15,912,638.44S918.63,636.54,921.6,635.72S928.21,633.89,931.2,633.1S937.79,631.36,940.8,630.6S947.37,628.97,950.4,628.25S958.48,626.42,960,626.08" style="fill: none; stroke: blue; stroke-width: 6;"></path>
    </g>
   </svg>
   <g>
    <g transform="translate(0,640)">
     <path d="M0,0h960M10,-12V0M29,-12V0M48,-12V0M68,-12V0M87,-24V0M107,-12V0M126,-12V0M145,-12V0M165,-12V0M184,-24V0M204,-12V0M223,-12V0M242,-12V0M262,-12V0M281,-24V0M301,-12V0M320,-12V0M339,-12V0M359,-12V0M378,-24V0M398,-12V0M417,-12V0M436,-12V0M456,-12V0M475,-24V0M495,-12V0M514,-12V0M533,-12V0M553,-12V0M572,-24V0M592,-12V0M611,-12V0M630,-12V0M650,-12V0M669,-24V0M688,-12V0M708,-12V0M727,-12V0M747,-12V0M766,-24V0M785,-12V0M805,-12V0M824,-12V0M844,-12V0M863,-24V0M882,-12V0M902,-12V0M921,-12V0M941,-12V0M960,-24V0" style="stroke: black; stroke-width: 1;"></path>
     <g font-family="Arial" font-size="28" space="preserve" fill="black" text-anchor="middle">
      <text dy=".8em" transform="translate(87,6)">
       1
      </text>
      <text dy=".8em" transform="translate(184,6)">
       2
      </text>
      <text dy=".8em" transform="translate(281,6)">
       3
      </text>
      <text dy=".8em" transform="translate(378,6)">
       4
      </text>
      <text dy=".8em" transform="translate(475,6)">
       5
      </text>
      <text dy=".8em" transform="translate(572,6)">
       6
      </text>
      <text dy=".8em" transform="translate(669,6)">
       7
      </text>
      <text dy=".8em" transform="translate(766,6)">
       8
      </text>
      <text dy=".8em" transform="translate(863,6)">
       9
      </text>
      <text dy=".8em" transform="translate(960,6)">
       10
      </text>
     </g>
    </g>
    <g>
     <path d="M0,0v640M18,627H0M18,614H0M18,600H0M18,587H0M36,573H0M18,560H0M18,547H0M18,533H0M18,520H0M36,506H0M18,493H0M18,479H0M18,466H0M18,452H0M36,439H0M18,426H0M18,412H0M18,399H0M18,385H0M36,372H0M18,358H0M18,345H0M18,331H0M18,318H0M36,304H0M18,291H0M18,278H0M18,264H0M18,251H0M36,237H0M18,224H0M18,210H0M18,197H0M18,183H0M36,170H0M18,157H0M18,143H0M18,130H0M18,116H0M36,103H0M18,89H0M18,76H0M18,62H0M18,49H0M36,35H0M18,22H0M18,9H0" style="stroke: black; stroke-width: 1;"></path>
     <g font-family="Arial" font-size="28" space="preserve" fill="black" text-anchor="end">
      <text dy=".4em" transform="translate(-4,573)">
       5
      </text>
      <text dy=".4em" transform="translate(-4,506)">
       10
      </text>
      <text dy=".4em" transform="translate(-4,439)">
       15
      </text>
      <text dy=".4em" transform="translate(-4,372)">
       20
      </text>
      <text dy=".4em" transform="translate(-4,304)">
       25
      </text>
      <text dy=".4em" transform="translate(-4,237)">
       30
      </text>
      <text dy=".4em" transform="translate(-4,170)">
       35
      </text>
      <text dy=".4em" transform="translate(-4,103)">
       40
      </text>
      <text dy=".4em" transform="translate(-4,35)">
       45
      </text>
     </g>
    </g>
   </g>
  </g>
  <g transform="translate(120,4)" font-family="Arial" font-size="40" space="preserve">
   <text fill="black" text-anchor="middle" dy=".8em" transform="translate(480)">
    x*gaus(0)+[3]*form1
   </text>
  </g>
 </g>
</svg>
